!!!!SEGMENT: pl-cz--iii-459--003_kuci-mateusz--symfonia-g-adagio.krn
!!!cenid: 17xx:235
!!!COM: Kuci, Mateusz
!!!COM-rismid: pe30017582
!!!CDT:
!!!CNT:
!!!OPR: Symfonia G
!!!OTL: Adagio
!!!OMV: 003
!!!PDT:
!!!AGN: Secular
!!!SMS-siglum: PL-CZ
!!!SMS-shelfmark: III-459
!!!SMS-shelfwork: 001-003 M
!!!NIFC-rismid:
!!!URL-scan: http://repozytorium.nifc.pl/skany/pl-cz-nut--iii-459
!!!ONB-nifc:
**kern	**dynam	**kern	**dynam	**kern	**dynam	**kern	**dynam	**kern	**kern	**kern	**kern	**dynam	**kern	**kern	**dynam
*part10	*part10	*part9	*part9	*part8	*part8	*part7	*part7	*part6	*part5	*part4	*part3	*part3	*part2	*part1	*part1
*staff10	*	*staff9	*	*staff8	*	*staff7	*	*staff6	*staff5	*staff4	*staff3	*	*staff2	*staff1	*
*group3	*	*group3	*	*group3	*	*group3	*	*group2	*group2	*group1	*group1	*	*group1	*group1	*
*Iempty	*	*Iviola	*	*Ivioln	*	*Ivioln	*	*Iempty	*Iempty	*Ifagot	*Ifagot	*	*Ioboe	*Ioboe	*
*I"Baſso	*	*I"Viola	*	*I"Violino Secondo.	*	*I"Violino Primo	*	*I"Cornu Secondo	*I"Cornu Primo	*I"Fagotto 2do	*I"Fagotto Imo	*	*I"Oboe Secondo	*I"Oboe Primo	*
*I'B	*	*I'Vla	*	*I'Vn II	*	*I'Vn I	*	*I'Cor II in G	*I'Cor I in G	*I'Fg II	*I'Fg I	*	*I'Ob II	*I'Ob I	*
*clefF4	*	*clefC3	*	*clefG2	*	*clefG2	*	*clefG2	*clefG2	*clefF4	*clefF4	*	*clefG2	*clefG2	*
*	*	*	*	*	*	*	*	*ITrd3c5	*ITrd3c5	*	*	*	*	*	*
*k[b-e-]	*	*k[b-e-]	*	*k[b-e-]	*	*k[b-e-]	*	*k[b-e-]	*k[b-e-]	*k[b-e-]	*k[b-e-]	*	*k[b-e-]	*k[b-e-]	*
*g:	*	*g:	*	*g:	*	*g:	*	*	*	*g:	*g:	*	*g:	*g:	*
*M3/4	*	*M3/4	*	*M3/4	*	*M3/4	*	*M3/4	*M3/4	*M3/4	*M3/4	*	*M3/4	*M3/4	*
=1	=1	=1	=1	=1	=1	=1	=1	=1	=1	=1	=1	=1	=1	=1	=1
!	!	!	!	!LO:TX:a:B:t=Adagio	!	!LO:TX:a:B:t=Adagio	!	!	!	!LO:TX:a:t=4	!LO:TX:a:t=4	!	!	!LO:TX:a:t=13	!
!LO:TX:a:B:t=Adagio	!	!LO:TX:a:B:t=Adagio	!	!LO:TX:a:t=Con Sordino	!	!LO:TX:a:t=Con Sordino	!	!LO:TX:a:B:t=Adagio Tacet	!LO:TX:a:B:t=Adagio Tacet	!LO:TX:a:B:t=Adagio	!LO:TX:a:B:t=Adagio	!	!LO:TX:a:B:t=Adagio Tace	!LO:TX:a:B:t=Adagio	!
!	!	!	!	!	!	!	!	!	!	!LO:N:vis=00	!LO:N:vis=00	!	!	!LO:N:vis=00	!
4GG/	.	4G/	.	8.B-/L	.	8.d/L	.	2.ryy	2.ryy	0.r	0.r	.	2.ryy	0.r	.
.	.	.	.	16c/Jk	.	16e-/Jk	.	.	.	.	.	.	.	.	.
4G\	.	4g\	.	8B-/L	.	8d/L	.	.	.	.	.	.	.	.	.
!	!	!	!	!LO:TX:b:t=b	!	!	!	!	!	!	!	!	!	!	!
.	.	.	.	8B-/	.	8g/	.	.	.	.	.	.	.	.	.
!	!	!	!	!LO:TX:b:t=d	!	!	!	!	!	!	!	!	!	!	!
8.r	.	8.r	.	8.d/	.	8.b-/	.	.	.	.	.	.	.	.	.
16D\	.	16d\	.	16c/Jk	.	16a/Jk	.	.	.	.	.	.	.	.	.
=2	=2	=2	=2	=2	=2	=2	=2	=2	=2	=2	=2	=2	=2	=2	=2
4G\	.	4g\	.	16c/LL	.	(16a/LL	.	2.ryy	2.ryy	.	.	.	2.ryy	.	.
.	.	.	.	16B-/	.	16g/	.	.	.	.	.	.	.	.	.
.	.	.	.	16A/	.	16f#X/	.	.	.	.	.	.	.	.	.
.	.	.	.	16B-/JJ	.	16g/JJ)	.	.	.	.	.	.	.	.	.
8G\L	.	8g\L	.	4B-/	.	4g/	.	.	.	.	.	.	.	.	.
8D\	.	8d\	.	.	.	.	.	.	.	.	.	.	.	.	.
8BB-\	.	8B-\	.	4r	.	4r	.	.	.	.	.	.	.	.	.
8D\J	.	8d\J	.	.	.	.	.	.	.	.	.	.	.	.	.
=3	=3	=3	=3	=3	=3	=3	=3	=3	=3	=3	=3	=3	=3	=3	=3
4GG/	.	4G/	.	8.B-/L	.	8.d/L	.	2.ryy	2.ryy	.	.	.	2.ryy	.	.
.	.	.	.	16c/Jk	.	16e-/Jk	.	.	.	.	.	.	.	.	.
!	!	!	!	!	!	!LO:TX:t=P:problem:mixed beam	!	!	!	!	!	!	!	!	!
4G\	.	4g\	.	8B-/L	.	8d/L	.	.	.	.	.	.	.	.	.
.	.	.	.	8g/	.	8b-\	.	.	.	.	.	.	.	.	.
8.r	.	8.r	.	8.b-/	.	8.dd\	.	.	.	.	.	.	.	.	.
16D\	.	16d\	.	16a/Jk	.	16cc\Jk	.	.	.	.	.	.	.	.	.
=4	=4	=4	=4	=4	=4	=4	=4	=4	=4	=4	=4	=4	=4	=4	=4
4G\	.	4g\	.	16a/LL	.	(16cc\LL	.	2.ryy	2.ryy	.	.	.	2.ryy	.	.
.	.	.	.	16g/	.	16b-\	.	.	.	.	.	.	.	.	.
.	.	.	.	16f#X/	.	16a\	.	.	.	.	.	.	.	.	.
.	.	.	.	16g/JJ	.	16b-\JJ)	.	.	.	.	.	.	.	.	.
8G\L	.	8g\L	.	4g/	.	4b-\	.	.	.	.	.	.	.	.	.
8D\	.	8d\	.	.	.	.	.	.	.	.	.	.	.	.	.
8BB-\	.	8B-\	.	4r	.	4r	.	.	.	.	.	.	.	.	.
8GG\J	.	8G\J	.	.	.	.	.	.	.	.	.	.	.	.	.
!	!	!	!	!LO:LB:g=original	!	!LO:LB:g=original	!	!	!	!	!	!	!	!	!
=5	=5	=5	=5	=5	=5	=5	=5	=5	=5	=5	=5	=5	=5	=5	=5
*2\right	*	*2\right	*	*	*	*	*	*	*	*	*	*	*	*	*
!	!	!	!	!	!	!	!	!	!	!	!	!	!	!LO:N:vis=00	!
2.G\	.	2.g\	.	4b-\	.	4dd\	.	2.ryy	2.ryy	4B-\	4d\	.	2.ryy	0.r	.
.	.	.	.	4b-\	.	4dd\	.	.	.	4B-\	4d\	.	.	.	.
.	.	.	.	4b-\	.	4dd\	.	.	.	4B-\	4d\	.	.	.	.
=6	=6	=6	=6	=6	=6	=6	=6	=6	=6	=6	=6	=6	=6	=6	=6
2.c\	.	2.c/	.	(8dd\L	.	(8ff\L	.	2.ryy	2.ryy	8d\L	(8f\L	.	2.ryy	.	.
.	.	.	.	8cc\J)	.	8ee-\J)	.	.	.	8c\J	8e-\J)	.	.	.	.
.	.	.	.	8r	.	8r	.	.	.	8r	8r	.	.	.	.
.	.	.	.	8cc\L	.	8ee-\L	.	.	.	8c\L	8e-\L	.	.	.	.
.	.	.	.	8cc\	.	8ee-\	.	.	.	8c\	8e-\	.	.	.	.
.	.	.	.	8cc\J	.	8ee-\J	.	.	.	8c\J	8e-\J	.	.	.	.
=7	=7	=7	=7	=7	=7	=7	=7	=7	=7	=7	=7	=7	=7	=7	=7
2.F\	.	2.fn\	.	(4cc\	.	4ee-\	.	2.ryy	2.ryy	4c\	4e-\	.	2.ryy	.	.
.	.	.	.	4b-\	.	4dd\	.	.	.	4B-\	4d\	.	.	.	.
.	.	.	.	4a\)	.	4cc\	.	.	.	4A\	4c\	.	.	.	.
=8	=8	=8	=8	=8	=8	=8	=8	=8	=8	=8	=8	=8	=8	=8	=8
2.B-\	.	2.B-/	.	(8a/L	.	(8cc#X\L	.	2.ryy	2.ryy	(8A\L	(8c#X\L	.	2.ryy	.	.
.	.	.	.	8b-/J)	.	8dd\J)	.	.	.	8B-\J)	8d\J)	.	.	.	.
.	.	.	.	8r	.	8r	.	.	.	8r	8r	.	.	.	.
.	.	.	.	8b-/L	.	8dd\L	.	.	.	8B-\L	8d\L	.	.	.	.
.	.	.	.	8b-/	.	8dd\	.	.	.	8B-\	8d\	.	.	.	.
.	.	.	.	8b-/J	.	8dd\J	.	.	.	8B-\J	8d\J	.	.	.	.
!LO:LB:g=original	!	!	!	!	!	!	!	!	!	!	!	!	!	!	!
=9	=9	=9	=9	=9	=9	=9	=9	=9	=9	=9	=9	=9	=9	=9	=9
.	.	.	.	8qqb-/	.	8qqdd/	.	.	.	8qqB-/	8qqd/	.	.	.	.
!	!	!	!	!	!	!	!	!	!	!	!	!	!	!LO:N:vis=00	!
4c\	.	4c/	.	4a/	.	4ccn\	.	2.ryy	2.ryy	4A\	4c\	.	2.ryy	0.r	.
4d\	.	4d/	.	4g/	.	4b-\	.	.	.	4G\	4B-\	.	.	.	.
4D/	.	4D/	.	4f#X/	.	4a\	.	.	.	4F#X\	4A\	.	.	.	.
!	!	!	!	!	!	!	!	!	!	!LO:LB:g=original	!	!	!	!	!
=10	=10	=10	=10	=10	=10	=10	=10	=10	=10	=10	=10	=10	=10	=10	=10
(4G\	.	(4G/	.	(4d/	.	4b-\	.	2.ryy	2.ryy	4G\	4B-\	.	2.ryy	.	.
4A\)	.	4A/)	.	4c/)	.	4cc\	.	.	.	4A\	4c\	.	.	.	.
4B-\	.	4B-`/	.	4B-`/	.	4dd\	.	.	.	4B-\	4d\	.	.	.	.
=11	=11	=11	=11	=11	=11	=11	=11	=11	=11	=11	=11	=11	=11	=11	=11
.	.	.	.	8qqdd/	.	8qqff/	.	.	.	8qqd/	8qqf/	.	.	.	.
4c\	.	4c/	.	8cc\L	.	8ee-\L	.	2.ryy	2.ryy	8c\L	8e-\L	.	2.ryy	.	.
.	.	.	.	16b-\L	.	16dd\L	.	.	.	16B-\L	16d\L	.	.	.	.
.	.	.	.	16a\JJ	.	16cc\JJ	.	.	.	16A\JJ	16c\JJ	.	.	.	.
!	!	!	!	!	!	!	!	!	!	!	!LO:LB:g=original	!	!	!	!
4d\	.	4d/	.	4g/	.	4b-\	.	.	.	4G\	4B-\	.	.	.	.
!	!	!	!	!LO:TX:a:t=t	!	!LO:TX:a:t=t	!	!	!	!	!LO:TX:a:t=t	!	!	!	!
4D/	.	4d/	.	4f#X/	.	4a/	.	.	.	4F#X\	4A\	.	.	.	.
!	!	!LO:LB:g=original	!	!	!	!	!	!	!	!	!	!	!	!	!
=12	=12	=12	=12	=12	=12	=12	=12	=12	=12	=12	=12	=12	=12	=12	=12
2.GG/	.	2.G/	.	4g/	.	4g/	.	2.ryy	2.ryy	4G\	4G\	.	2.ryy	.	.
.	.	.	.	4B-/	.	4d/	.	.	.	4B-\	4d\	.	.	.	.
.	.	.	.	4B-/	.	4d/	.	.	.	4B-\	4d\	.	.	.	.
=13	=13	=13	=13	=13	=13	=13	=13	=13	=13	=13	=13	=13	=13	=13	=13
.	.	.	.	.	.	16qqd/LL	.	.	.	.	.	.	.	.	.
!	!	!	!	!	!	!LO:TX:a:t=problem: nieczytelna wysokość przednutek	!	!	!	!	!	!	!	!	!
.	.	.	.	.	.	16qqd/JJ	.	.	.	.	.	.	.	.	.
2DD/	.	2D/	.	4.B-/	.	4.d/	.	2.ryy	2.ryy	4.B-\	4.d\	.	2.ryy	2.r	.
.	.	.	.	8A/	.	8c/	.	.	.	8A\	8c\	.	.	.	.
4GG/	.	4G/	.	4G/	.	4B-/	.	.	.	4G\	4B-\	.	.	.	.
!	!	!	!	!LO:LB:g=original	!	!	!	!	!	!	!	!	!	!	!
=14	=14	=14	=14	=14	=14	=14	=14	=14	=14	=14	=14	=14	=14	=14	=14
!	!	!	!	!LO:TX:a:t=2	!	!LO:TX:a:t=2	!	!	!	!LO:TX:a:t=72	!LO:TX:a:t=7	!	!	!LO:TX:b:t=Solo	!
!	!	!	!LO:DY:t=p:	!LO:N:vis=0	!	!LO:N:vis=0	!	!	!	!LO:TX:b:t=Paus	!LO:N:vis=00	!	!	!	!
4GG/	p	4G/	p	1.r	.	1.r	.	2.ryy	2.ryy	2.ryy	0.r	.	2.ryy	8.dd\L	.
.	.	.	.	.	.	.	.	.	.	.	.	.	.	16ee-\Jk	.
4G\	.	4g\	.	.	.	.	.	.	.	.	.	.	.	8dd\L	.
.	.	.	.	.	.	.	.	.	.	.	.	.	.	8gg\	.
8.r	.	8.r	.	.	.	.	.	.	.	.	.	.	.	8.bb-\	.
16D\	.	16d\	.	.	.	.	.	.	.	.	.	.	.	16aa\Jk	.
=15	=15	=15	=15	=15	=15	=15	=15	=15	=15	=15	=15	=15	=15	=15	=15
4G\	.	4g\	.	.	.	.	.	2.ryy	2.ryy	2.ryy	.	.	2.ryy	16aa\LL	.
.	.	.	.	.	.	.	.	.	.	.	.	.	.	16gg\	.
.	.	.	.	.	.	.	.	.	.	.	.	.	.	16ff#X\	.
.	.	.	.	.	.	.	.	.	.	.	.	.	.	16gg\JJ	.
8G\L	.	8g\L	.	.	.	.	.	.	.	.	.	.	.	4gg\	.
8D\	.	8d\	.	.	.	.	.	.	.	.	.	.	.	.	.
8BB-\	.	8B-\	.	.	.	.	.	.	.	.	.	.	.	4r	.
8D\J	.	8d\J	.	.	.	.	.	.	.	.	.	.	.	.	.
=16	=16	=16	=16	=16	=16	=16	=16	=16	=16	=16	=16	=16	=16	=16	=16
4GG/	.	4G/	.	8.B-/L	pp	8.d/L	pp	2.ryy	2.ryy	2.ryy	.	.	2.ryy	8.dd\L	.
.	.	.	.	16c/Jk	.	16e-/Jk	.	.	.	.	.	.	.	16ee-X\Jk	.
4G\	.	4g\	.	8B-/L	.	8d/L	.	.	.	.	.	.	.	8dd\L	.
.	.	.	.	8g/	.	8b-/J	.	.	.	.	.	.	.	8bb-\	.
8.r	.	8.r	.	8.b-/	.	8.dd\L	.	.	.	.	.	.	.	8.ddd\	.
16D\	.	16d\	.	16a/Jk	.	16cc\Jk	.	.	.	.	.	.	.	16ccc\Jk	.
!	!	!	!	!	!	!	!	!	!	!	!	!	!	!LO:LB:g=original	!
=17	=17	=17	=17	=17	=17	=17	=17	=17	=17	=17	=17	=17	=17	=17	=17
4G\	.	4g\	.	16a/LL	.	(16cc\LL	.	2.ryy	2.ryy	2.ryy	.	.	2.ryy	(16ccc\LL	.
.	.	.	.	16g/	.	16b-\	.	.	.	.	.	.	.	16bb-\	.
.	.	.	.	16f#X/	.	16a\	.	.	.	.	.	.	.	16aa\	.
.	.	.	.	16g/JJ	.	16b-\JJ)	.	.	.	.	.	.	.	16bb-\JJ)	.
8G\L	.	8g\L	.	4g/	.	4b-\	.	.	.	.	.	.	.	4bb-\	.
8D\	.	8d\	.	.	.	.	.	.	.	.	.	.	.	.	.
8BB-\	.	8B-\	.	4r	.	4r	.	.	.	.	.	.	.	4r	.
8GG\J	.	8G\J	.	.	.	.	.	.	.	.	.	.	.	.	.
=18	=18	=18	=18	=18	=18	=18	=18	=18	=18	=18	=18	=18	=18	=18	=18
*	*	*	*	*	*	*	*	*	*	*	*	*	*	*2\right	*
!	!	!	!	!	!	!	!	!	!	!	!LO:N:vis=0	!	!	!	!
4r	.	4r	.	4r	.	4r	.	2.ryy	2.ryy	2.ryy	1.r	.	2.ryy	2.dd\	.
4G\	.	4g\	.	4d/	.	4b-\	.	.	.	.	.	.	.	.	.
4G\	.	4g\	.	4d/	.	4b-\	.	.	.	.	.	.	.	.	.
=19	=19	=19	=19	=19	=19	=19	=19	=19	=19	=19	=19	=19	=19	=19	=19
4r	.	4r	.	4r	.	4r	.	2.ryy	2.ryy	2.ryy	.	.	2.ryy	2.dd\	.
4F#X\	.	4f#X\	.	4d/	.	4a/	.	.	.	.	.	.	.	.	.
4F#\	.	4f#\	.	4d/	.	4a/	.	.	.	.	.	.	.	.	.
!LO:LB:g=original	!	!	!	!	!	!	!	!	!	!	!	!	!	!	!
=20	=20	=20	=20	=20	=20	=20	=20	=20	=20	=20	=20	=20	=20	=20	=20
2.En\	.	2.en\	.	2.A;</	.	2.g/	.	2.ryy	2.ryy	2.ryy	2.r	.	2.ryy	4gg\	.
!	!	!	!	!	!	!	!	!	!	!	!	!	!	!LO:TX:a:t=SIC:s=8qff#	!
!	!	!	!	!	!	!	!	!	!	!	!	!	!	!LO:TX:a:t=SIC:s=4een	!
.	.	.	.	.	.	.	.	.	.	.	.	.	.	8qqff/	.
.	.	.	.	.	.	.	.	.	.	.	.	.	.	4ee-\	.
.	.	.	.	.	.	.	.	.	.	.	.	.	.	8qqdd/	.
.	.	.	.	.	.	.	.	.	.	.	.	.	.	4cc#X\	.
=21	=21	=21	=21	=21	=21	=21	=21	=21	=21	=21	=21	=21	=21	=21	=21
!	!	!	!	!	!	!	!	!	!	!	!	!	!	!LO:TX:a:t=SIC:s=8qcc#	!
.	.	.	.	.	.	.	.	.	.	.	.	.	.	8qqcc;/	.
2.D;\	.	2.d;\	.	2.A;</	.	2.f#X;/	.	2.ryy	2.ryy	2.ryy	2.r;	.	2.ryy	2.dd;\	.
!	!	!	!	!	!	!LO:LB:g=original	!	!	!	!	!	!	!	!	!
=22	=22	=22	=22	=22	=22	=22	=22	=22	=22	=22	=22	=22	=22	=22	=22
*	*	*	*	*	*	*	*	*	*	*	*2\right	*	*	*	*
!	!	!	!	!	!	!	!	!	!	!	!	!	!	!	!LO:DY:t=p.
4BB-/	pp	4B-/	.	4B-/	.	4f/	.	2.ryy	2.ryy	2.ryy	[2.B-\	pp	2.ryy	4.b-\	p
4BB-/	.	4B-/	.	4B-/	.	4f/	.	.	.	.	.	.	.	.	.
.	.	.	.	.	.	.	.	.	.	.	.	.	.	8b-\	.
4BB-/	.	4B-/	.	4B-/	.	4f/	.	.	.	.	.	.	.	(8ee-\L	.
.	.	.	.	.	.	.	.	.	.	.	.	.	.	8dd\J)	.
=23	=23	=23	=23	=23	=23	=23	=23	=23	=23	=23	=23	=23	=23	=23	=23
(4E-X\	.	4e-\	.	4B-/	.	4g/	.	2.ryy	2.ryy	2.ryy	2.B-\]	.	2.ryy	4cc\	.
4E-\	.	4e-\	.	4B-/	.	4g/	.	.	.	.	.	.	.	4cc\	.
4En\)	.	4en\	.	4B-/	.	4g/	.	.	.	.	.	.	.	4cc\	.
!	!	!LO:LB:g=original	!	!LO:LB:g=original	!	!	!	!	!	!	!	!	!	!	!
=24	=24	=24	=24	=24	=24	=24	=24	=24	=24	=24	=24	=24	=24	=24	=24
4F\	.	4f\	.	4f/	.	4a/	.	2.ryy	2.ryy	2.ryy	4.A\	.	2.ryy	4.cc\	.
4F\	.	4f\	.	4f/	.	4a/	.	.	.	.	.	.	.	.	.
.	.	.	.	.	.	.	.	.	.	.	(16B-\LL	.	.	16dd\LL	.
.	.	.	.	.	.	.	.	.	.	.	16c\JJ)	.	.	16ee-\JJ	.
4A\	.	4a\	.	4f/	.	4a/	.	.	.	.	8d\L	.	.	(8ff\L	.
.	.	.	.	.	.	.	.	.	.	.	8c\J	.	.	8ee-\J)	.
=25	=25	=25	=25	=25	=25	=25	=25	=25	=25	=25	=25	=25	=25	=25	=25
.	.	.	.	.	.	.	.	.	.	.	8qqc/	.	.	8qqee-/	.
4B-\	.	4b-\	.	4f/	.	4b-/	.	2.ryy	2.ryy	2.ryy	4B-\	.	2.ryy	4dd\	.
4F\	.	4f\	.	(8f/L	.	(8b-/L	.	.	.	.	4B-\	.	.	4dd\	.
.	.	.	.	8d/	.	8f/	.	.	.	.	.	.	.	.	.
4BB-/	.	4B-/	.	8c/	.	8e-/	.	.	.	.	4B-\	.	.	4dd\	.
.	.	.	.	8B-/J)	.	8d/J)	.	.	.	.	.	.	.	.	.
!	!	!	!	!	!	!	!	!	!	!	!	!	!	!LO:LB:g=original	!
=26	=26	=26	=26	=26	=26	=26	=26	=26	=26	=26	=26	=26	=26	=26	=26
!	!	!	!	!	!	!	!	!	!	!	!LO:TX:a:t=1	!	!	!	!
2.D\	.	2.d\	.	2.d/	.	2.f/	.	2.ryy	2.ryy	2.ryy	2.r	.	2.ryy	(8ff\L	.
.	.	.	.	.	.	.	.	.	.	.	.	.	.	8dd\	.
.	.	.	.	.	.	.	.	.	.	.	.	.	.	8bb-\	.
.	.	.	.	.	.	.	.	.	.	.	.	.	.	8aa\	.
.	.	.	.	.	.	.	.	.	.	.	.	.	.	8gg\	.
.	.	.	.	.	.	.	.	.	.	.	.	.	.	8ff\J)	.
=27	=27	=27	=27	=27	=27	=27	=27	=27	=27	=27	=27	=27	=27	=27	=27
2.E-\	.	2.e-\	.	(8d/L	.	(8f#X/L	.	2.ryy	2.ryy	2.ryy	8r	.	2.ryy	(8ff#X\L	.
.	.	.	.	8e-/J)	.	8g/J)	.	.	.	.	8E-\L	.	.	8gg\J)	.
.	.	.	.	2e-/	.	2g/	.	.	.	.	(8e-X\	.	.	[2gg\	.
.	.	.	.	.	.	.	.	.	.	.	8d\	.	.	.	.
.	.	.	.	.	.	.	.	.	.	.	8c\	.	.	.	.
.	.	.	.	.	.	.	.	.	.	.	8B-\J)	.	.	.	.
!	!	!	!	!	!	!	!	!	!	!	!LO:LB:g=original	!	!	!	!
=28	=28	=28	=28	=28	=28	=28	=28	=28	=28	=28	=28	=28	=28	=28	=28
2.AA/	.	2.a\	.	(4e-/	.	(4g/	.	2.ryy	2.ryy	2.ryy	[2.A\	.	2.ryy	4gg\]	.
.	.	.	.	4d/)	.	4f/)	.	.	.	.	.	.	.	4ff\	.
.	.	.	.	4c`/	.	4e-X/	.	.	.	.	.	.	.	4ee-X\	.
=29	=29	=29	=29	=29	=29	=29	=29	=29	=29	=29	=29	=29	=29	=29	=29
4BB-/	.	4b-\	.	(8A/L	.	(8c#X/L	.	2.ryy	2.ryy	2.ryy	8A\L]	.	2.ryy	(8cc#X\L	.
.	.	.	.	8B-/J)	.	8d/J)	.	.	.	.	8B-\J	.	.	8dd\J)	.
4D/	.	4d\	.	8r	.	8r	.	.	.	.	8r	.	.	8r	.
.	.	.	.	8B-`/L	.	8d`/L	.	.	.	.	8B-\L	.	.	8dd`\L	.
4F/	.	4f\	.	(8c/	.	(8e-X/	.	.	.	.	(8c\	.	.	(8ee-\	.
.	.	.	.	8A/J)	.	8c#/J)	.	.	.	.	8A\J)	.	.	8cc#\J)	.
!LO:LB:g=original	!	!	!	!	!	!LO:LB:g=original	!	!	!	!	!	!	!	!	!
=30	=30	=30	=30	=30	=30	=30	=30	=30	=30	=30	=30	=30	=30	=30	=30
!	!	!	!	!	!	!LO:TX:a:t=SIC:s=8en	!	!	!	!	!	!	!	!	!
4BB-/	.	4B-/	.	(8c#X/L	.	(8e-/L	.	2.ryy	2.ryy	2.ryy	(8c#X\L	.	2.ryy	(8een\L	.
.	.	.	.	8d/J)	.	8f/J)	.	.	.	.	8d\J)	.	.	8ff\J)	.
4D/	.	4d/	.	8r	.	8r	.	.	.	.	8r	.	.	8r	.
.	.	.	.	8B-`/L	.	(8d/L	.	.	.	.	8B-\L	.	.	8dd\L	.
!	!	!	!	!LO:TX:a:t=SIC:s=8cn	!	!LO:TX:a:t=problem: bemol pod nutą	!	!	!	!	!	!	!	!	!
4F/	.	4f/	.	(8c#/	.	8e-X/)	.	.	.	.	8cni\	.	.	(8ee-Xi\	.
.	.	.	.	8A/J)	.	8c`/J	.	.	.	.	8A\J	.	.	8cc\J)	.
!	!	!	!	!LO:PB:g=original	!	!	!	!	!	!	!	!	!	!	!
=31	=31	=31	=31	=31	=31	=31	=31	=31	=31	=31	=31	=31	=31	=31	=31
2.BB-/	.	2.B-/	.	(8B-/L	.	(8d/L	.	2.ryy	2.ryy	2.ryy	(8B-\L	.	2.ryy	(8dd\L	.
.	.	.	.	8c/	.	8e-X/	.	.	.	.	8c\	.	.	8ee-X\	.
.	.	.	.	8c#X/	.	8en/	.	.	.	.	8c#X\	.	.	8een\	.
.	.	.	.	8d/	.	8f/	.	.	.	.	8d\	.	.	8ff\	.
.	.	.	.	8d/	.	8f#X/	.	.	.	.	8d\	.	.	8ff#X\	.
.	.	.	.	8e-/J)	.	8g/J)	.	.	.	.	8e-X\J)	.	.	8gg\J)	.
!	!	!	!	!	!	!	!	!	!	!	!	!	!	!LO:LB:g=original	!
=32	=32	=32	=32	=32	=32	=32	=32	=32	=32	=32	=32	=32	=32	=32	=32
2BB-/	.	2B-/	.	8f/L	.	8a-X`/L	.	2.ryy	2.ryy	2.ryy	8f`\L	.	2.ryy	8aa-X\L	.
.	.	.	.	16f/L	.	(16a-/L	.	.	.	.	(16f\L	.	.	16aa-\L	.
.	.	.	.	16en/JJ	.	16g/JJ)	.	.	.	.	16en\JJ)	.	.	16gg\JJ	.
.	.	.	.	8f/L	.	8a-`/L	.	.	.	.	8f`\L	.	.	8aa-\L	.
.	.	.	.	16f/L	.	(16a-/L	.	.	.	.	(16f\L	.	.	16aa-\L	.
.	.	.	.	16en/JJ	.	16g/JJ)	.	.	.	.	16e\JJ)	.	.	16gg\JJ	.
8BB-/L	.	8B-/L	.	8f/	.	8a-/	.	.	.	.	8f\	.	.	8aa-\	.
16C/L	.	16c/L	.	8r	.	8r	.	.	.	.	8r	.	.	8r	.
16D/JJ	.	16d/JJ	.	.	.	.	.	.	.	.	.	.	.	.	.
=33	=33	=33	=33	=33	=33	=33	=33	=33	=33	=33	=33	=33	=33	=33	=33
!	!	!	!	!LO:TX:a:t=problem: bemol pod nutą	!	!	!	!	!	!	!	!	!	!	!
4E-\	.	4e-\	.	8e-X/L	.	8g/L	.	2.ryy	2.ryy	2.ryy	8e-X\L	.	2.ryy	8gg`\L	.
.	.	.	.	(16e-/L	.	(16g/L	.	.	.	.	16e-\L	.	.	(16gg\L	.
.	.	.	.	16d/JJ)	.	16f#X/JJ	.	.	.	.	16d\JJ	.	.	16ff#X\JJ)	.
4r	.	4r	.	8e-/L	.	8g'/L	.	.	.	.	8e-\L	.	.	8gg\L	.
.	.	.	.	16e-/L	.	16g/L	.	.	.	.	16e-\L	.	.	(16gg\L	.
.	.	.	.	16d/JJ	.	16f#X/JJ)	.	.	.	.	16d\JJ	.	.	16ff#X\JJ)	.
8r	.	8r	.	8e-/	.	8g/	.	.	.	.	8e-\	.	.	8gg\	.
8E-\	.	8e-\	.	8r	.	8r	.	.	.	.	8r	.	.	8r	.
!	!	!	!	!	!	!	!	!	!	!	!LO:LB:g=original	!	!	!	!
=34	=34	=34	=34	=34	=34	=34	=34	=34	=34	=34	=34	=34	=34	=34	=34
!	!	!	!	!LO:TX:a:t=1	!	!LO:TX:a:t=1	!	!	!	!	!LO:TX:a:t=1	!	!	!LO:TX:a:t=1	!
(8En\L	.	8en\L	.	2.r	.	2.r	.	2.ryy	2.ryy	2.ryy	2.r	.	2.ryy	2.r	.
8F\	.	(8f\	.	.	.	.	.	.	.	.	.	.	.	.	.
8F#X\	.	8f#X\	.	.	.	.	.	.	.	.	.	.	.	.	.
8G\	.	8g\	.	.	.	.	.	.	.	.	.	.	.	.	.
!	!	!LO:TX:a:t=SIC:s=8fn	!	!	!	!	!	!	!	!	!	!	!	!	!
8Fn\	.	8f#\	.	.	.	.	.	.	.	.	.	.	.	.	.
8E\J)	.	8e\J)	.	.	.	.	.	.	.	.	.	.	.	.	.
=35	=35	=35	=35	=35	=35	=35	=35	=35	=35	=35	=35	=35	=35	=35	=35
2F\	.	2.f\	.	4r	.	4r	.	2.ryy	2.ryy	2.ryy	8.r	.	2.ryy	8.r	.
.	.	.	.	.	.	.	.	.	.	.	16D\	.	.	16b-`\	.
.	.	.	.	(4f/	.	(4dd\	.	.	.	.	4F\	.	.	4dd\	.
!	!	!	!	!	!	!	!	!	!	!	!LO:TX:a:t=t	!	!	!LO:TX:a:t=t	!
4FF/	.	.	.	4e-X/)	.	4cc\)	.	.	.	.	4E-t\	.	.	4cc\	.
!	!	!LO:LB:g=original	!	!	!	!LO:PB:g=original	!	!	!	!	!	!	!	!	!
=36	=36	=36	=36	=36	=36	=36	=36	=36	=36	=36	=36	=36	=36	=36	=36
4BB-/	.	4f\	f	8d/	f	8d/ 8b-	f	2.ryy	2.ryy	2.ryy	4D\	.	2.ryy	4b-\	.
.	.	.	.	4d/	.	4d/ 4b-	.	.	.	.	.	.	.	.	.
4D/	.	4f\	.	.	.	.	.	.	.	.	4r	.	.	4r	.
.	.	.	.	4d/	.	4d/ 4b-	.	.	.	.	.	.	.	.	.
4F/	.	4f\	.	.	.	.	.	.	.	.	4r	.	.	4r	.
.	.	.	.	8d/	.	8d/ 8b-	.	.	.	.	.	.	.	.	.
=37	=37	=37	=37	=37	=37	=37	=37	=37	=37	=37	=37	=37	=37	=37	=37
!	!	!	!	!	!	!	!	!	!	!	!LO:TX:a:t=5	!	!	!LO:TX:a:t=17	!
!	!	!	!	!	!	!	!	!	!	!	!LO:N:vis=00	!	!	!LO:N:vis=00	!
4B-\	.	4f\	.	(8d/L	.	(8b-\L	.	2.ryy	2.ryy	2.ryy	0.r	.	2.ryy	0.r	.
.	.	.	.	8c/	.	8a\	.	.	.	.	.	.	.	.	.
4r	.	4r	.	8e-/	.	8cc\	.	.	.	.	.	.	.	.	.
.	.	.	.	8d/	.	8b-\	.	.	.	.	.	.	.	.	.
4r	.	4r	.	8g/	.	8ee-\	.	.	.	.	.	.	.	.	.
.	.	.	.	8f/J)	.	8dd\J)	.	.	.	.	.	.	.	.	.
!	!	!	!	!LO:LB:g=original	!	!	!	!	!	!	!	!	!	!	!
=38	=38	=38	=38	=38	=38	=38	=38	=38	=38	=38	=38	=38	=38	=38	=38
4BB-/	.	4B-\ 4f	.	8b-\	.	8dd\	.	2.ryy	2.ryy	2.ryy	.	.	2.ryy	.	.
.	.	.	.	4b-\	.	4dd\	.	.	.	.	.	.	.	.	.
4D/	.	4B-\ 4f	.	.	.	.	.	.	.	.	.	.	.	.	.
.	.	.	.	4b-\	.	4dd\	.	.	.	.	.	.	.	.	.
4F/	.	4B-\ 4f	.	.	.	.	.	.	.	.	.	.	.	.	.
.	.	.	.	8b-\	.	8dd\	.	.	.	.	.	.	.	.	.
=39	=39	=39	=39	=39	=39	=39	=39	=39	=39	=39	=39	=39	=39	=39	=39
4B-\	.	4B-\ 4f	.	(8b-\L	.	(8dd\L	.	2.ryy	2.ryy	2.ryy	.	.	2.ryy	.	.
.	.	.	.	8a\	.	8cc\	.	.	.	.	.	.	.	.	.
4r	.	4r	.	8cc\	.	8ee-\	.	.	.	.	.	.	.	.	.
.	.	.	.	8b-\	.	8dd\	.	.	.	.	.	.	.	.	.
4r	.	4r	.	8ee-\	.	8gg\	.	.	.	.	.	.	.	.	.
.	.	.	.	8dd\J)	.	8ff\J)	.	.	.	.	.	.	.	.	.
!LO:LB:g=original	!	!	!	!	!	!	!	!	!	!	!	!	!	!	!
=40	=40	=40	=40	=40	=40	=40	=40	=40	=40	=40	=40	=40	=40	=40	=40
.	.	.	.	8qqdd/	.	8qqff/	.	.	.	.	.	.	.	.	.
4E-\	.	(4g\	.	4cc\	.	4ee-\	.	2.ryy	2.ryy	2.ryy	.	.	2.ryy	.	.
4F\	.	4f\)	.	4b-\	.	4dd\	.	.	.	.	.	.	.	.	.
!	!	!	!	!LO:TX:a:t=t	!	!LO:TX:a:t=t	!	!	!	!	!	!	!	!	!
4FF/	.	4f\	.	4a\	.	4cc\	.	.	.	.	.	.	.	.	.
=41	=41	=41	=41	=41	=41	=41	=41	=41	=41	=41	=41	=41	=41	=41	=41
!	!	!	!	!	!	!	!	!	!	!	!	!	!	!LO:N:vis=00	!
4.BB-/	.	4.f\	.	8.d/L	.	8.b-\L	.	2.ryy	2.ryy	2.ryy	2.r	.	2.ryy	0.r	.
.	.	.	.	16f/Jk	.	16dd\Jk	.	.	.	.	.	.	.	.	.
.	.	.	.	.	.	8qqcc/	.	.	.	.	.	.	.	.	.
.	.	.	.	4d/	.	4b-\	.	.	.	.	.	.	.	.	.
8E-\L	.	(8g\L	.	.	.	.	.	.	.	.	.	.	.	.	.
8D\	.	8f\	.	4r	.	4r	.	.	.	.	.	.	.	.	.
8C\J	.	8e-\J)	p	.	.	.	.	.	.	.	.	.	.	.	.
=42	=42	=42	=42	=42	=42	=42	=42	=42	=42	=42	=42	=42	=42	=42	=42
!	!	!	!	!	!	!	!	!	!	!	!LO:TX:b:t=Solo	!	!	!	!
4BB-/	.	4d\	.	8r	.	8r	.	2.ryy	2.ryy	2.ryy	2f\	.	2.ryy	.	.
.	.	.	.	8d/L	.	8f/L	p	.	.	.	.	.	.	.	.
4BB-/	.	4B-/	.	8d/	.	8f/	.	.	.	.	.	.	.	.	.
.	.	.	.	8d/	.	8f/	.	.	.	.	.	.	.	.	.
4BB-/	.	4B-/	.	8d/	.	8f/	.	.	.	.	(16e-\LL	.	.	.	.
.	.	.	.	.	.	.	.	.	.	.	16d\	.	.	.	.
.	.	.	.	8d/J	.	8f/J	.	.	.	.	16c\	.	.	.	.
.	.	.	.	.	.	.	.	.	.	.	16B-\JJ)	.	.	.	.
!	!	!	!	!	!	!LO:LB:g=original	!	!	!	!	!	!	!	!	!
=43	=43	=43	=43	=43	=43	=43	=43	=43	=43	=43	=43	=43	=43	=43	=43
4F\	.	4f\	.	8r	.	8r	.	2.ryy	2.ryy	2.ryy	(16A\LL	.	2.ryy	.	.
.	.	.	.	.	.	.	.	.	.	.	16B-\	.	.	.	.
.	.	.	.	8f/L	.	8f/L	.	.	.	.	16c\	.	.	.	.
.	.	.	.	.	.	.	.	.	.	.	16d\JJ)	.	.	.	.
4F\	.	4f\	.	8f/	.	8f/	.	.	.	.	4e-\	.	.	.	.
.	.	.	.	8f/	.	8f/	.	.	.	.	.	.	.	.	.
4E-X\	.	4e-X\	.	8f/	.	8f/	.	.	.	.	8.r	.	.	.	.
.	.	.	.	8f/J	.	8f/J	.	.	.	.	.	.	.	.	.
.	.	.	.	.	.	.	.	.	.	.	16c\	.	.	.	.
=44	=44	=44	=44	=44	=44	=44	=44	=44	=44	=44	=44	=44	=44	=44	=44
*	*	*	*	*	*	*2\right	*	*	*	*	*	*	*	*	*
4D\	.	4d\	.	2.f/	.	(2b-\	.	2.ryy	2.ryy	2.ryy	4B-\	.	2.ryy	.	.
4D\	.	4d\	.	.	.	.	.	.	.	.	4.B-\	.	.	.	.
4D\	.	4d\	.	.	.	4bn\)	.	.	.	.	.	.	.	.	.
.	.	.	.	.	.	.	.	.	.	.	8Bn\	.	.	.	.
=45	=45	=45	=45	=45	=45	=45	=45	=45	=45	=45	=45	=45	=45	=45	=45
.	.	.	.	.	.	.	.	.	.	.	8qqd/	.	.	.	.
!	!	!	!	!	!	!	!	!	!	!	!	!	!	!LO:N:vis=00	!
4AA/	.	4A/	.	8r	.	8r	.	2.ryy	2.ryy	2.ryy	8c\L	.	2.ryy	0.r	.
.	.	.	.	8f/L	.	8cc\L	.	.	.	.	16Bn\L	.	.	.	.
.	.	.	.	.	.	.	.	.	.	.	16c\JJ	.	.	.	.
4AA/	.	4A/	.	8f/	.	8cc\	.	.	.	.	4c\	.	.	.	.
.	.	.	.	8f/	.	8cc\	.	.	.	.	.	.	.	.	.
4AA/	.	4A/	.	8f/	.	8cc\	.	.	.	.	4r	.	.	.	.
.	.	.	.	8f/J	.	8cc\J	.	.	.	.	.	.	.	.	.
!	!	!	!	!LO:LB:g=original	!	!	!	!	!	!	!LO:LB:g=original	!	!	!	!
=46	=46	=46	=46	=46	=46	=46	=46	=46	=46	=46	=46	=46	=46	=46	=46
.	.	.	.	.	.	.	.	.	.	.	16qqc/LL	.	.	.	.
.	.	.	.	.	.	.	.	.	.	.	16qqd/JJ	.	.	.	.
4F\	.	4f\	.	8r	.	8r	.	2.ryy	2.ryy	2.ryy	4.e-X\	.	2.ryy	.	.
.	.	.	.	8cc\L	.	8ee-X\L	.	.	.	.	.	.	.	.	.
4F\	.	4f\	.	8cc\	.	8ee-\	.	.	.	.	.	.	.	.	.
.	.	.	.	8cc\	.	8ee-\	.	.	.	.	16d\LL	.	.	.	.
.	.	.	.	.	.	.	.	.	.	.	16c\JJ	.	.	.	.
4E-X\	.	4e-X\	.	8cc\	.	8ee-\	.	.	.	.	16d\LL	.	.	.	.
.	.	.	.	.	.	.	.	.	.	.	16c\	.	.	.	.
.	.	.	.	8cc\J	.	8ee-\J	.	.	.	.	16B-\	.	.	.	.
.	.	.	.	.	.	.	.	.	.	.	16A\JJ	.	.	.	.
=47	=47	=47	=47	=47	=47	=47	=47	=47	=47	=47	=47	=47	=47	=47	=47
4D\	.	4d\	.	8r	.	8r	.	2.ryy	2.ryy	2.ryy	16B-\LL	.	2.ryy	.	.
.	.	.	.	.	.	.	.	.	.	.	16c\	.	.	.	.
.	.	.	.	8b-\L	.	8dd\L	.	.	.	.	16d\	.	.	.	.
.	.	.	.	.	.	.	.	.	.	.	16e-\JJ	.	.	.	.
8B-\L	.	8b-\L	.	8b-\	.	8dd\	.	.	.	.	4f\	.	.	.	.
8F\	.	8f\	.	8b-\	.	8dd\	.	.	.	.	.	.	.	.	.
8D\	.	8d\	.	8b-\	.	8dd\	.	.	.	.	4r	.	.	.	.
8BB-\J	.	8B-\J	.	8b-\J	.	8dd\J	.	.	.	.	.	.	.	.	.
!	!	!LO:LB:g=original	!	!	!	!	!	!	!	!	!	!	!	!	!
=48	=48	=48	=48	=48	=48	=48	=48	=48	=48	=48	=48	=48	=48	=48	=48
.	.	.	.	.	.	.	.	.	.	.	8qqG/	.	.	.	.
4E-\	.	4e-\	.	8r	.	8r	.	2.ryy	2.ryy	2.ryy	4.g\	.	2.ryy	.	.
.	.	.	.	8g/	.	8cc\	.	.	.	.	.	.	.	.	.
4E-\	.	4e-\	.	8r	.	8r	.	.	.	.	.	.	.	.	.
.	.	.	.	8g/	.	8cc\	.	.	.	.	(16f\LL	.	.	.	.
.	.	.	.	.	.	.	.	.	.	.	16e-\JJ)	.	.	.	.
!LO:TX:t=P:problem:mixed beam	!	!LO:TX:t=P:problem:mixed beam	!	!	!	!	!	!	!	!	!	!	!	!	!
8F\L	.	8f\L	.	8f/L	.	(8dd\L	.	.	.	.	8d\L	.	.	.	.
!	!	!	!	!	!	!	!	!	!	!	!LO:TX:a:t=t	!	!	!	!
8FF/J	.	8F/J	.	8f/J	.	8cc\J)	.	.	.	.	8c\J	.	.	.	.
=49	=49	=49	=49	=49	=49	=49	=49	=49	=49	=49	=49	=49	=49	=49	=49
.	.	.	.	.	.	.	.	.	.	.	8qqe-/	.	.	.	.
!	!	!	!	!	!	!	!	!	!	!	!	!	!	!LO:N:vis=00	!
4BB-/	.	4B-/	.	8r	.	8r	.	2.ryy	2.ryy	2.ryy	8d\L	.	2.ryy	0.r	.
!	!	!	!	!LO:TX:a:t=problem: nieczytelny początek/koniec legato	!	!LO:TX:a:t=problem: nieczytelny początek/koniec legato	!	!	!	!	!	!	!	!	!
.	.	.	.	(8b-\L	.	(8dd\L	.	.	.	.	(16c\L	.	.	.	.
.	.	.	.	.	.	.	.	.	.	.	16B-\JJ)	.	.	.	.
4B-\	.	4b-\	.	8dd\	.	8ff\	.	.	.	.	4B-\	.	.	.	.
.	.	.	.	8b-\	.	8dd\	.	.	.	.	.	.	.	.	.
4BB-/	.	4r	.	8dd\	.	8ff\	.	.	.	.	8r	.	.	.	.
.	.	.	.	8b-\J)	.	8dd\J)	.	.	.	.	8d\	.	.	.	.
!	!	!	!	!	!	!LO:LB:g=original	!	!	!	!	!	!	!	!	!
=50	=50	=50	=50	=50	=50	=50	=50	=50	=50	=50	=50	=50	=50	=50	=50
2F\	.	(2f\	.	4r	.	4r	.	2.ryy	2.ryy	2.ryy	(4d\	.	2.ryy	.	.
.	.	.	.	(8cc\L	.	(8ee-X\L	.	.	.	.	4cn\)	.	.	.	.
.	.	.	.	8a\	.	8cc\	.	.	.	.	.	.	.	.	.
4F#X\	.	4f#X\)	.	8cc\	.	8ee-\	.	.	.	.	8r	.	.	.	.
.	.	.	.	8a\J)	.	8cc\J)	.	.	.	.	8c\	.	.	.	.
!LO:LB:g=original	!	!	!	!	!	!	!	!	!	!	!LO:LB:g=original	!	!	!	!
=51	=51	=51	=51	=51	=51	=51	=51	=51	=51	=51	=51	=51	=51	=51	=51
!	!	!	!	!	!	!LO:N:vis=4	!	!	!	!	!	!	!	!	!
4G\	.	4g\	.	4r	.	8r	.	2.ryy	2.ryy	2.ryy	16c\LL	.	2.ryy	.	.
.	.	.	.	.	.	.	.	.	.	.	16B-\	.	.	.	.
!	!	!	!	!	!	!LO:TX:a:t=problem: nieczytelny początek/koniec legato	!	!	!	!	!	!	!	!	!
.	.	.	.	.	.	(8dd\L	.	.	.	.	16A\	.	.	.	.
.	.	.	.	.	.	.	.	.	.	.	16B-\JJ	.	.	.	.
4G\	.	4g\	.	8b-X/L	.	8b-\	.	.	.	.	4B-\	.	.	.	.
.	.	.	.	8g/	.	8dd\	.	.	.	.	.	.	.	.	.
4C#X/	.	4c#X\	.	8g/	.	8b-\	.	.	.	.	8r	.	.	.	.
.	.	.	.	8e-/J	.	8g\J)	.	.	.	.	8G\	.	.	.	.
=52	=52	=52	=52	=52	=52	=52	=52	=52	=52	=52	=52	=52	=52	=52	=52
.	.	.	.	.	.	8qqa/	.	.	.	.	.	.	.	.	.
4.D/	.	4.d\	.	(4e-/	.	4g/	.	2.ryy	2.ryy	2.ryy	(16A\LL	.	2.ryy	.	.
.	.	.	.	.	.	.	.	.	.	.	16G\	.	.	.	.
.	.	.	.	.	.	.	.	.	.	.	16F#X\	.	.	.	.
.	.	.	.	.	.	.	.	.	.	.	16G\JJ)	.	.	.	.
.	.	.	.	4d/)	.	4f#X/	.	.	.	.	4F#\	.	.	.	.
8Cn/L	.	8cn\L	.	.	.	.	.	.	.	.	.	.	.	.	.
8BB-X/	.	8B-X\	.	4r	.	4r	.	.	.	.	4r	.	.	.	.
8AA/J	.	8A\J	.	.	.	.	.	.	.	.	.	.	.	.	.
!	!	!	!	!LO:LB:g=original	!	!	!	!	!	!	!	!	!	!	!
=53	=53	=53	=53	=53	=53	=53	=53	=53	=53	=53	=53	=53	=53	=53	=53
!	!	!	!	!	!	!	!	!	!	!	!	!	!	!LO:TX:a:t=problem: nadmiarowy 1 takt pauzy	!
2.ryy	.	2.ryy	.	2.ryy	.	2.ryy	.	2.ryy	2.ryy	2.ryy	2.ryy	.	2.ryy	2.ryy	.
!	!	!	!	!	!	!	!	!	!	!	!	!	!	!LO:LB:g=original	!
=54	=54	=54	=54	=54	=54	=54	=54	=54	=54	=54	=54	=54	=54	=54	=54
!	!	!	!	!	!	!	!	!	!	!	!LO:TX:a:t=8	!	!	!	!
!	!	!	!	!	!	!	!	!	!	!	!LO:N:vis=00	!	!	!	!
4GG/	.	2.G/	.	8r	.	8r	.	2.ryy	2.ryy	2.ryy	0.r	.	2.ryy	2dd\	.
.	.	.	.	8d/L	.	8b-\L	.	.	.	.	.	.	.	.	.
4GG/	.	.	.	8d/	.	8b-\	.	.	.	.	.	.	.	.	.
.	.	.	.	8d/	.	8b-\	.	.	.	.	.	.	.	.	.
4GG/	.	.	.	8d/	.	8b-\	.	.	.	.	.	.	.	(16cc\LL	.
.	.	.	.	.	.	.	.	.	.	.	.	.	.	16b-\	.
.	.	.	.	8d/J	.	8b-\J	.	.	.	.	.	.	.	16a\	.
.	.	.	.	.	.	.	.	.	.	.	.	.	.	16g\JJ)	.
=55	=55	=55	=55	=55	=55	=55	=55	=55	=55	=55	=55	=55	=55	=55	=55
4D\	.	2.d\	.	8r	.	8r	.	2.ryy	2.ryy	2.ryy	.	.	2.ryy	16f#X/LL	.
.	.	.	.	.	.	.	.	.	.	.	.	.	.	16g/	.
.	.	.	.	8f#X/L	.	8a/L	.	.	.	.	.	.	.	16a/	.
.	.	.	.	.	.	.	.	.	.	.	.	.	.	16b-/JJ	.
4D\	.	.	.	8f#/	.	8a/	.	.	.	.	.	.	.	4cc\	.
.	.	.	.	8f#/	.	8a/	.	.	.	.	.	.	.	.	.
4D\	.	.	.	8f#/	.	8a/	.	.	.	.	.	.	.	8r	.
.	.	.	.	8f#/J	.	8a/J	.	.	.	.	.	.	.	(16ff#X\LL	.
.	.	.	.	.	.	.	.	.	.	.	.	.	.	16gg\JJ)	.
=56	=56	=56	=56	=56	=56	=56	=56	=56	=56	=56	=56	=56	=56	=56	=56
4F#X\	.	2.f#X\	.	8r	.	8r	.	2.ryy	2.ryy	2.ryy	.	.	2.ryy	4.aa\	.
.	.	.	.	8a/L	.	8cc\L	.	.	.	.	.	.	.	.	.
4F#\	.	.	.	8a/	.	8cc\	.	.	.	.	.	.	.	.	.
*	*	*	*	*	*	*	*	*	*	*	*	*	*	*Xtuplet	*
.	.	.	.	8a/	.	8cc\	.	.	.	.	.	.	.	(24gg\LL	.
.	.	.	.	.	.	.	.	.	.	.	.	.	.	24ff#X\	.
.	.	.	.	.	.	.	.	.	.	.	.	.	.	24ee-X\JJ)	.
4F#\	.	.	.	8a/	.	8cc\	.	.	.	.	.	.	.	16dd\LL	.
.	.	.	.	.	.	.	.	.	.	.	.	.	.	16cc\	.
.	.	.	.	8a/J	.	8cc\J	.	.	.	.	.	.	.	16b-X\	.
.	.	.	.	.	.	.	.	.	.	.	.	.	.	16a\JJ	.
=57	=57	=57	=57	=57	=57	=57	=57	=57	=57	=57	=57	=57	=57	=57	=57
.	.	.	.	.	.	.	.	.	.	.	.	.	.	8qqcc/	.
8G\L	.	4g\	.	8r	.	8r	.	2.ryy	2.ryy	2.ryy	.	.	2.ryy	8b-\L	.
8d\	.	.	.	8g/L	.	8b-\L	.	.	.	.	.	.	.	16a\L	.
.	.	.	.	.	.	.	.	.	.	.	.	.	.	16g\JJ	.
8B-\	.	4r	.	8g/	.	8b-\	.	.	.	.	.	.	.	4g/	.
8G\	.	.	.	8g/	.	8b-\	.	.	.	.	.	.	.	.	.
8D\	.	4r	.	8g/	.	8b-\	.	.	.	.	.	.	.	8r	.
8BB-\J	.	.	.	8g/J	.	8b-\J	.	.	.	.	.	.	.	8dd\	.
!	!	!	!	!	!	!LO:LB:g=original	!	!	!	!	!	!	!	!	!
=58	=58	=58	=58	=58	=58	=58	=58	=58	=58	=58	=58	=58	=58	=58	=58
!	!	!	!	!	!	!	!	!	!	!	!LO:LB:g=original	!	!	!	!
4C/	.	4c\	.	4g/	.	4ee-\	.	2.ryy	2.ryy	2.ryy	0.r	.	2.ryy	16ee-X`i\LL	.
.	.	.	.	.	.	.	.	.	.	.	.	.	.	(16cc\	.
.	.	.	.	.	.	.	.	.	.	.	.	.	.	16bn\	.
.	.	.	.	.	.	.	.	.	.	.	.	.	.	16cc\JJ)	.
4r	.	4r	.	4r	.	4r	.	.	.	.	.	.	.	16g`\LL	.
.	.	.	.	.	.	.	.	.	.	.	.	.	.	(16cc\	.
.	.	.	.	.	.	.	.	.	.	.	.	.	.	16bni\	.
.	.	.	.	.	.	.	.	.	.	.	.	.	.	16cc\JJ)	.
4C/	.	4c\	.	4g/	.	4ee-\	.	.	.	.	.	.	.	16ee-\LL	.
.	.	.	.	.	.	.	.	.	.	.	.	.	.	16cc\	.
.	.	.	.	.	.	.	.	.	.	.	.	.	.	16bni\	.
.	.	.	.	.	.	.	.	.	.	.	.	.	.	16cc\JJ	.
!	!	!	!	!	!	!	!	!	!	!	!	!	!	!LO:LB:g=original	!
=59	=59	=59	=59	=59	=59	=59	=59	=59	=59	=59	=59	=59	=59	=59	=59
4BB-/	.	4B-X/	.	4g/	.	4dd\	.	2.ryy	2.ryy	2.ryy	.	.	2.ryy	16dd\LL	.
.	.	.	.	.	.	.	.	.	.	.	.	.	.	16b-X\	.
.	.	.	.	.	.	.	.	.	.	.	.	.	.	16a\	.
.	.	.	.	.	.	.	.	.	.	.	.	.	.	16b-\JJ	.
4r	.	4r	.	4r	.	4r	.	.	.	.	.	.	.	16g/LL	.
.	.	.	.	.	.	.	.	.	.	.	.	.	.	16b-/	.
.	.	.	.	.	.	.	.	.	.	.	.	.	.	16a/	.
.	.	.	.	.	.	.	.	.	.	.	.	.	.	16b-/JJ	.
4BB-/	.	4B-/	.	4g/	.	4dd\	.	.	.	.	.	.	.	16dd\LL	.
.	.	.	.	.	.	.	.	.	.	.	.	.	.	16b-\	.
.	.	.	.	.	.	.	.	.	.	.	.	.	.	16a\	.
.	.	.	.	.	.	.	.	.	.	.	.	.	.	16b-\JJ	.
=60	=60	=60	=60	=60	=60	=60	=60	=60	=60	=60	=60	=60	=60	=60	=60
4D\	.	4d\	.	4f#X/	.	4a/	.	2.ryy	2.ryy	2.ryy	.	.	2.ryy	8a/	.
.	.	.	.	.	.	.	.	.	.	.	.	.	.	4a/	.
4r	.	4r	.	4r	.	4r	.	.	.	.	.	.	.	.	.
.	.	.	.	.	.	.	.	.	.	.	.	.	.	16b-/LL	.
.	.	.	.	.	.	.	.	.	.	.	.	.	.	16cc/JJ	.
!	!	!	!	!	!	!LO:TX:a:t=problem: bemol na 4 polu	!	!	!	!	!	!	!	!	!
4D\	.	4d\	.	(8g/L	.	(8b-X\L	.	.	.	.	.	.	.	(8b-\L	.
.	.	.	.	8f#/J)	.	8a\J)	.	.	.	.	.	.	.	8a\J)	.
=61	=61	=61	=61	=61	=61	=61	=61	=61	=61	=61	=61	=61	=61	=61	=61
4D\	.	4d\	.	4g/	.	2b-\	.	2.ryy	2.ryy	2.ryy	.	.	2.ryy	8b-\	.
.	.	.	.	.	.	.	.	.	.	.	.	.	.	4b-\	.
4r	.	4r	.	4r	.	.	.	.	.	.	.	.	.	.	.
.	.	.	.	.	.	.	.	.	.	.	.	.	.	(16cc\LL	.
.	.	.	.	.	.	.	.	.	.	.	.	.	.	16dd\JJ)	.
4D\	.	4d\	.	(8a/L	.	(8cc\L	.	.	.	.	.	.	.	8cc\L	.
.	.	.	.	8g/J)	.	8b-\J)	.	.	.	.	.	.	.	8b-\J	.
!	!	!	!	!LO:LB:g=original	!	!	!	!	!	!	!	!	!	!	!
=62	=62	=62	=62	=62	=62	=62	=62	=62	=62	=62	=62	=62	=62	=62	=62
4D\	.	4d\	.	4a/	.	2cc\	.	2.ryy	2.ryy	2.ryy	8A\	.	2.ryy	8cc\	.
.	.	.	.	.	.	.	.	.	.	.	4A\	.	.	4cc\	.
4r	.	4r	.	4r	.	.	.	.	.	.	.	.	.	.	.
.	.	.	.	.	.	.	.	.	.	.	16B-\LL	.	.	16dd\LL	.
.	.	.	.	.	.	.	.	.	.	.	16c\JJ	.	.	16ee-\JJ	.
!	!	!LO:TX:a:t=SIC:s=4f#	!	!	!	!	!	!	!	!	!	!	!	!	!
4F#X\	.	4f\	.	(8b-X/L	.	(8dd\L	.	.	.	.	8B-\L	.	.	8dd\L	.
.	.	.	.	8a/J)	.	8cc\J)	.	.	.	.	8A\J	.	.	8cc\J	.
=63	=63	=63	=63	=63	=63	=63	=63	=63	=63	=63	=63	=63	=63	=63	=63
.	.	.	.	8qqa/	.	8qqcc/	.	.	.	.	8qqA/	.	.	8qqcc/	.
4G\	.	4g\	.	4g/	.	4b-\	.	2.ryy	2.ryy	2.ryy	4G\	.	2.ryy	4b-\	.
4D\	.	4d\	.	4f#X/	.	4a\	.	.	.	.	(16F#X\LL	.	.	4a/	.
.	.	.	.	.	.	.	.	.	.	.	16D\	.	.	.	.
!	!	!	!	!	!	!	!	!	!	!	!LO:TX:a:t=problem: nieczytelny znak nad nutą	!	!	!	!
.	.	.	.	.	.	.	.	.	.	.	16E-\	.	.	.	.
.	.	.	.	.	.	.	.	.	.	.	16F#X\JJ)	.	.	.	.
4r	.	4r	.	4r	.	4r	.	.	.	.	16G\LL	.	.	4r	.
.	.	.	.	.	.	.	.	.	.	.	16A\	.	.	.	.
.	.	.	.	.	.	.	.	.	.	.	16B-X\	.	.	.	.
.	.	.	.	.	.	.	.	.	.	.	16cn\JJ	.	.	.	.
!LO:LB:g=original	!	!LO:LB:g=original	!	!	!	!	!	!	!	!	!	!	!	!	!
=64	=64	=64	=64	=64	=64	=64	=64	=64	=64	=64	=64	=64	=64	=64	=64
!	!	!LO:TX:a:t=3	!	!	!	!	!	!	!	!	!	!	!	!LO:TX:a:t=1	!
!	!	!LO:N:vis=0	!	!	!	!	!	!	!	!	!	!	!	!	!
2.BB-X/	.	1.r	.	2.g/	.	2.dd\	.	2.ryy	2.ryy	2.ryy	4d\	.	2.ryy	2.r	.
.	.	.	.	.	.	.	.	.	.	.	(8c\L	.	.	.	.
.	.	.	.	.	.	.	.	.	.	.	8B-\	.	.	.	.
.	.	.	.	.	.	.	.	.	.	.	8A\	.	.	.	.
.	.	.	.	.	.	.	.	.	.	.	8G\J)	.	.	.	.
!	!	!	!	!	!	!	!	!	!	!	!LO:LB:g=original	!	!	!LO:LB:g=original	!
=65	=65	=65	=65	=65	=65	=65	=65	=65	=65	=65	=65	=65	=65	=65	=65
!	!	!	!	!	!	!	!	!	!	!	!	!	!	!LO:TX:a:t=problem: brak ósemki	!
2.C/	.	.	.	2.g/	.	2.ee-\	.	2.ryy	2.ryy	2.ryy	4e-X\	.	2.ryy	8ryy	.
.	.	.	.	.	.	.	.	.	.	.	.	.	.	8gg\L	.
.	.	.	.	.	.	.	.	.	.	.	8d\L	.	.	8ff\	.
.	.	.	.	.	.	.	.	.	.	.	8c\	.	.	(8ee-X\	.
.	.	.	.	.	.	.	.	.	.	.	8B-\	.	.	8dd\	.
.	.	.	.	.	.	.	.	.	.	.	8A\J	.	.	8cc\J)	.
=66	=66	=66	=66	=66	=66	=66	=66	=66	=66	=66	=66	=66	=66	=66	=66
8D/L	.	2.r	.	2g/	.	8dd`\L	.	2.ryy	2.ryy	2.ryy	16G\LL	.	2.ryy	16b-\LL	.
.	.	.	.	.	.	.	.	.	.	.	(16B-\	.	.	16dd\	.
8C/J	.	.	.	.	.	(16ee-\L	.	.	.	.	16c\	.	.	16ee-\	.
.	.	.	.	.	.	16cc\JJ)	.	.	.	.	16A\JJ)	.	.	16cc\JJ	.
!	!	!	!	!	!	!LO:LB:g=original	!	!	!	!	!	!	!	!	!
4D/	.	.	.	.	.	4b-\	.	.	.	.	4G\	.	.	4b-\	.
!	!	!	!	!	!	!LO:TX:a:t=t	!	!	!	!	!LO:TX:a:t=t	!	!	!LO:TX:a:t=t	!
4DD/	.	.	.	4f#X/	.	4a\	.	.	.	.	4F#X\	.	.	4a\	.
=67	=67	=67	=67	=67	=67	=67	=67	=67	=67	=67	=67	=67	=67	=67	=67
.	.	.	.	.	.	.	.	.	.	.	8qqG/	.	.	8qqg/	.
(8GG/L	.	(8G/L	.	2.g/	.	2.b-\	<	2.ryy	2.ryy	2.ryy	[2.B-\	.	2.ryy	2.gg\	.
8AA/	.	8A/	.	.	.	.	.	.	.	.	.	.	.	.	.
8BB-/	.	8B-/	.	.	.	.	.	.	.	.	.	.	.	.	.
8BBn/	.	8Bn/	.	.	.	.	.	.	.	.	.	.	.	.	.
8C/	.	8c/	.	.	.	.	.	.	.	.	.	.	.	.	.
8C#X/J)	.	8c#X/J)	.	.	.	.	.	.	.	.	.	.	.	.	.
=68	=68	=68	=68	=68	=68	=68	=68	=68	=68	=68	=68	=68	=68	=68	=68
!	!	!	!	!	!LO:DY:t=f	!	!	!	!	!	!	!	!	!	!
8D\L	f	8d\L	.	8g/	f	8b-\	f	2.ryy	2.ryy	2.ryy	4B-\]	.	2.ryy	4gg\	.
8E-X\J	.	8e-X\J	.	4g/	.	4b-\	.	.	.	.	.	.	.	.	.
4D\	.	4d\	f	.	.	.	.	.	.	.	4B-\	.	.	4gg\	.
.	.	.	.	4b-/	.	8b-\	.	.	.	.	.	.	.	.	.
4C#X/	.	4c#X\	.	.	.	8gg\L	.	.	.	.	4B-\	.	.	4gg\	.
.	.	.	.	8g/	.	8gg\J	.	.	.	.	.	.	.	.	.
=69	=69	=69	=69	=69	=69	=69	=69	=69	=69	=69	=69	=69	=69	=69	=69
2D;\	.	2.d;\	.	2.g;</	.	2.gg;\	.	2.ryy	2.ryy	2.ryy	2B-;\	.	2.ryy	2gg;\	.
!LO:TX:a:t=problem: miara 3 w takcie dotyczy już zakończenia Cadenzy	!	!	!	!	!	!	!	!	!	!	!LO:TX:a:t=problem: miara 3 w takcie dotyczy już zakończenia Cadenzy	!	!	!LO:TX:a:t=problem: miara 3 w takcie dotyczy już zakończenia Cadenzy	!
!	!	!	!	!	!	!	!	!	!	!	!LO:TX:a:t=t	!	!	!LO:TX:a:t=t	!
4DD/	.	.	.	.	.	.	.	.	.	.	4F#X\	.	.	4a/	.
.	.	.	.	.	.	.	.	.	.	.	16qqE-/LL	.	.	.	.
.	.	.	.	.	.	.	.	.	.	.	16qqF#/JJ	.	.	.	.
=70	=70	=70	=70	=70	=70	=70	=70	=70	=70	=70	=70	=70	=70	=70	=70
*M4/4	*	*M4/4	*	*M4/4	*	*M4/4	*	*M4/4	*M4/4	*M4/4	*M4/4	*	*M4/4	*M4/4	*
*	*	*	*	*	*	*	*	*	*	*	*^	*	*	*	*
!	!	!	!	!	!	!	!	!	!	!	!	!	!	!	!LO:TX:a:t=problem: Cadenza w 2-głosie zapisana na karcie głosu Oboe Primo, po części Adagio	!
!	!	!	!	!	!	!	!	!	!	!	!	!	!	!	!LO:TX:a:B:t=Cadenz:	!
1ryy	.	1ryy	.	1ryy	.	1ryy	.	1ryy	1ryy	1ryy	16r	16r	.	1ryy	16r	.
!	!	!	!	!	!	!	!	!	!	!	!LO:TX:a:t=problem: w warstwie 1 Cadenza zamieszczona na karcie głosu Oboe Primo	!	!	!	!	!
!	!	!	!	!	!	!	!	!	!	!	!LO:TX:a:t=problem: w warstwie 2 Cadenza fagotu zapisana pod partią Fagotto Primo, po części Adagio	!	!	!	!	!
.	.	.	.	.	.	.	.	.	.	.	16B-/LLyy	16B-\LL	.	.	16dd\LL	.
.	.	.	.	.	.	.	.	.	.	.	16A/yy	16A\	.	.	16cc\	.
.	.	.	.	.	.	.	.	.	.	.	16B-/JJyy	(16B-\JJ	.	.	16dd\JJ	.
.	.	.	.	.	.	.	.	.	.	.	(16c/LLyy	16c\LL	.	.	(16ee-\LL	.
.	.	.	.	.	.	.	.	.	.	.	16B-/yy	16B-\	.	.	16dd\	.
.	.	.	.	.	.	.	.	.	.	.	16A/yy	16A\	.	.	16cc\	.
.	.	.	.	.	.	.	.	.	.	.	16G/JJ)	16G\JJ	.	.	16b-\JJ)	.
.	.	.	.	.	.	.	.	.	.	.	16A/LL	16A\LL)	.	.	16cc\LL	.
.	.	.	.	.	.	.	.	.	.	.	(16A/	16A\	.	.	(16cc\	.
.	.	.	.	.	.	.	.	.	.	.	16G/	16G\	.	.	16b-\	.
.	.	.	.	.	.	.	.	.	.	.	16A/JJ)	16A\JJ	.	.	16cc\JJ)	.
.	.	.	.	.	.	.	.	.	.	.	16B-/LL	16B-\LL	.	.	(16dd\LL	.
.	.	.	.	.	.	.	.	.	.	.	16A/	16A\	.	.	16cc\	.
.	.	.	.	.	.	.	.	.	.	.	16G/	16G\	.	.	16b-\	.
.	.	.	.	.	.	.	.	.	.	.	16F#X/JJ	16F#\JJ	.	.	16a\JJ)	.
=71	=71	=71	=71	=71	=71	=71	=71	=71	=71	=71	=71	=71	=71	=71	=71	=71
1ryy	.	1ryy	.	1ryy	.	1ryy	.	1ryy	1ryy	1ryy	16G`/LL	16G\LL	.	1ryy	16b-`\LL	.
.	.	.	.	.	.	.	.	.	.	.	(16d/	16d\	.	.	(16b-\	.
.	.	.	.	.	.	.	.	.	.	.	16c/	16c\	.	.	16a\	.
.	.	.	.	.	.	.	.	.	.	.	16d/JJ)	16d\JJ	.	.	16b-\JJ)	.
.	.	.	.	.	.	.	.	.	.	.	16e-/LL	16e-\LL	.	.	(16cc\LL	.
.	.	.	.	.	.	.	.	.	.	.	16d/	16d\	.	.	16b-\	.
.	.	.	.	.	.	.	.	.	.	.	16c/	16c\	.	.	16a\	.
.	.	.	.	.	.	.	.	.	.	.	16B-/JJ	16B-\JJ	.	.	16g\JJ)	.
.	.	.	.	.	.	.	.	.	.	.	16c`/LL	16c\LL	.	.	16a/LL	.
.	.	.	.	.	.	.	.	.	.	.	(16c/	16c\	.	.	16a/	.
.	.	.	.	.	.	.	.	.	.	.	16B-/	16B-\	.	.	16g/	.
.	.	.	.	.	.	.	.	.	.	.	16c/JJ)	16c\JJ	.	.	16a/JJ	.
.	.	.	.	.	.	.	.	.	.	.	16d/LL	16d\LL	.	.	16b-/LL	.
.	.	.	.	.	.	.	.	.	.	.	16c/	16c\	.	.	16a/	.
.	.	.	.	.	.	.	.	.	.	.	16B-/	16B-\	.	.	16g/	.
.	.	.	.	.	.	.	.	.	.	.	16A/JJ	16A\JJ	.	.	16f#X/JJ	.
=72	=72	=72	=72	=72	=72	=72	=72	=72	=72	=72	=72	=72	=72	=72	=72	=72
1ryy	.	1ryy	.	1ryy	.	1ryy	.	1ryy	1ryy	1ryy	8B-;/L	8B-\L	.	1ryy	8g;</L	.
.	.	.	.	.	.	.	.	.	.	.	(8G/	8G\	.	.	(8b-/	.
.	.	.	.	.	.	.	.	.	.	.	8F#X/	(8F#\	.	.	8a/	.
.	.	.	.	.	.	.	.	.	.	.	8A/J	8A\J	.	.	8cc/J	.
.	.	.	.	.	.	.	.	.	.	.	8G/L	8G\L	.	.	8b-/L)	.
.	.	.	.	.	.	.	.	.	.	.	8B-/)	8B-\)	.	.	(8g/	.
.	.	.	.	.	.	.	.	.	.	.	8A/	8A\	.	.	8f#X/	.
.	.	.	.	.	.	.	.	.	.	.	8c/J	8c\J	.	.	8a/J)	.
=73	=73	=73	=73	=73	=73	=73	=73	=73	=73	=73	=73	=73	=73	=73	=73	=73
2ryy	.	2ryy	.	2ryy	.	2ryy	.	2ryy	2ryy	2ryy	8B-/Lyy	8B-\L	.	2ryy	8g/L	.
.	.	.	.	.	.	.	.	.	.	.	8G/yy	8G\	.	.	8b-/	.
.	.	.	.	.	.	.	.	.	.	.	8F#X/yy	8F#\	.	.	8a/	.
.	.	.	.	.	.	.	.	.	.	.	8A/Jyy	8G\J	.	.	8cc/J	.
!	!	!	!	!	!	!	!	!	!	!	!LO:TX:a:t=problem: w kadencji rozpisanej pod partią oboju tu zejście w oktawach g, f, es, cis.	!	!	!	!	!
!	!	!	!	!	!	!	!	!	!	!	!LO:TX:t=P:problem:mixed beam	!	!	!	!	!
4ryy	.	4ryy	.	4ryy	.	4ryy	.	4ryy	4ryy	4ryy	16GG/LLyy	16GG/LL	.	4ryy	4b-\	.
.	.	.	.	.	.	.	.	.	.	.	16G\yy	16G\	.	.	.	.
.	.	.	.	.	.	.	.	.	.	.	16EE-X/yy	16EE-X/	.	.	.	.
.	.	.	.	.	.	.	.	.	.	.	16E-\JJyy	16E-\JJ	.	.	.	.
!	!	!	!	!	!	!	!	!	!	!	!LO:TX:t=P:problem:mixed beam	!	!	!	!	!
4ryy	.	4ryy	.	4ryy	.	4ryy	.	4ryy	4ryy	4ryy	16EE-/LLyy	16DD/LL	.	4ryy	4b-\	.
.	.	.	.	.	.	.	.	.	.	.	16E-\yy	16D\	.	.	.	.
.	.	.	.	.	.	.	.	.	.	.	16CC#X/yy	16CC#/	.	.	.	.
.	.	.	.	.	.	.	.	.	.	.	16C\JJyy	16C#X\JJ	.	.	.	.
=74	=74	=74	=74	=74	=74	=74	=74	=74	=74	=74	=74	=74	=74	=74	=74	=74
4ryy	.	1ryy	.	1ryy	.	1ryy	.	1ryy	1ryy	1ryy	2D;\	2D\	.	1ryy	2b-;</	.
2ryy	.	.	.	.	.	.	.	.	.	.	.	.	.	.	.	.
!	!	!	!	!	!	!	!	!	!	!	!LO:TX:a:t=t	!LO:TX:a:t=t	!	!	!LO:TX:a:t=problem: takt ten w zapisie kadencji jest na 4/4, a w partiach głosów na 3/4	!
.	.	.	.	.	.	.	.	.	.	.	2F#X\	2F#\	.	.	2at/	.
4DD/	.	.	.	.	.	.	.	.	.	.	.	.	.	.	.	.
*	*	*	*	*	*	*	*	*	*	*	*v	*v	*	*	*	*
.	.	.	.	.	.	.	.	.	.	.	16qqE-/LL	.	.	16qqg/LL	.
.	.	.	.	.	.	.	.	.	.	.	16qqF#/JJ	.	.	16qqa/JJ	.
!	!	!	!	!	!	!	!	!	!	!	!LO:LB:g=original	!	!	!	!
=75	=75	=75	=75	=75	=75	=75	=75	=75	=75	=75	=75	=75	=75	=75	=75
*M3/4	*	*M3/4	*	*M3/4	*	*M3/4	*	*M3/4	*M3/4	*M3/4	*M3/4	*	*M3/4	*M3/4	*
4GG/	.	4G/	.	8.B-/L	.	8.d/L	f	2.ryy	2.ryy	2.ryy	4G\	.	2.ryy	4g/	.
.	.	.	.	16c/Jk	.	16e-/Jk	.	.	.	.	.	.	.	.	.
4G\	.	4g\	.	8B-/L	.	8d/L	.	.	.	.	2r	.	.	2r	.
.	.	.	.	8B-/J	.	8g/	.	.	.	.	.	.	.	.	.
!	!	!	!	!LO:LB:g=original	!	!	!	!	!	!	!	!	!	!	!
8.r	.	8.r	.	8.d/L	.	8.b-/	.	.	.	.	.	.	.	.	.
16D\	.	16d\	.	16c/Jk	.	16a/Jk	.	.	.	.	.	.	.	.	.
!	!	!	!	!	!	!	!	!	!	!	!	!	!	!LO:LB:g=original	!
=76	=76	=76	=76	=76	=76	=76	=76	=76	=76	=76	=76	=76	=76	=76	=76
!	!	!	!	!	!	!	!	!	!	!	!LO:TX:a:t=10	!	!	!LO:TX:a:t=11	!
!	!	!	!	!	!	!	!	!	!	!	!LO:N:vis=00	!	!	!LO:N:vis=00	!
4G\	.	4g\	.	16c/LL	.	(16a/LL	.	2.ryy	2.ryy	2.ryy	0.r	.	2.ryy	0.r	.
.	.	.	.	16B-/	.	16g/	.	.	.	.	.	.	.	.	.
.	.	.	.	16A/	.	16f#X/	.	.	.	.	.	.	.	.	.
.	.	.	.	16B-/JJ	.	16g/JJ)	.	.	.	.	.	.	.	.	.
8G\L	.	8g\L	.	4B-/	.	4g/	.	.	.	.	.	.	.	.	.
8D\	.	8d\	.	.	.	.	.	.	.	.	.	.	.	.	.
8BB-\	.	8B-\	.	4r	.	4r	.	.	.	.	.	.	.	.	.
8D\J	.	8d\J	.	.	.	.	.	.	.	.	.	.	.	.	.
=77	=77	=77	=77	=77	=77	=77	=77	=77	=77	=77	=77	=77	=77	=77	=77
4GG/	.	4G/	.	8.B-/L	.	8.d/L	.	2.ryy	2.ryy	2.ryy	.	.	2.ryy	.	.
.	.	.	.	16c/Jk	.	16e-X/Jk	.	.	.	.	.	.	.	.	.
!	!	!	!	!	!	!LO:TX:t=P:problem:mixed beam	!	!	!	!	!	!	!	!	!
4G\	.	4g\	.	8B-/L	.	8d/L	.	.	.	.	.	.	.	.	.
.	.	.	.	8g/	.	8b-\	.	.	.	.	.	.	.	.	.
8.r	.	8.r	.	8.b-/	.	8.dd\	.	.	.	.	.	.	.	.	.
16D\	.	16d\	.	16a/Jk	.	16cc\Jk	.	.	.	.	.	.	.	.	.
=78	=78	=78	=78	=78	=78	=78	=78	=78	=78	=78	=78	=78	=78	=78	=78
4G\	.	4g\	.	16a/LL	.	(16cc\LL	.	2.ryy	2.ryy	2.ryy	.	.	2.ryy	.	.
.	.	.	.	16g/	.	16b-\	.	.	.	.	.	.	.	.	.
!	!	!	!	!LO:TX:a:t=problem: krzyżyk pod nutą	!	!	!	!	!	!	!	!	!	!	!
.	.	.	.	16f#X/	.	16a\	.	.	.	.	.	.	.	.	.
.	.	.	.	16g/JJ	.	16b-\JJ)	.	.	.	.	.	.	.	.	.
8G\L	.	8g\L	.	4g/	.	4b-\	.	.	.	.	.	.	.	.	.
8D\	.	8d\	.	.	.	.	.	.	.	.	.	.	.	.	.
8BB-\	.	8B-\	.	4r	.	4r	.	.	.	.	.	.	.	.	.
8GG\J	.	8G\J	.	.	.	.	.	.	.	.	.	.	.	.	.
!LO:LB:g=original	!	!	!	!	!	!	!	!	!	!	!	!	!	!	!
=79	=79	=79	=79	=79	=79	=79	=79	=79	=79	=79	=79	=79	=79	=79	=79
4G\	.	4g\	.	8b-\	.	8dd\	.	2.ryy	2.ryy	2.ryy	.	.	2.ryy	.	.
.	.	.	.	4b-\	.	4dd\	.	.	.	.	.	.	.	.	.
4G\	.	4g\	.	.	.	.	.	.	.	.	.	.	.	.	.
.	.	.	.	4b-\	.	4dd\	.	.	.	.	.	.	.	.	.
4G\	.	4g\	.	.	.	.	.	.	.	.	.	.	.	.	.
.	.	.	.	8b-\	.	8dd\	.	.	.	.	.	.	.	.	.
=80	=80	=80	=80	=80	=80	=80	=80	=80	=80	=80	=80	=80	=80	=80	=80
!	!	!	!	!	!	!	!	!	!	!	!LO:N:vis=00	!	!	!LO:N:vis=00	!
4c\	.	4cc\	.	8dd\	.	8ff\	.	2.ryy	2.ryy	2.ryy	0.r	.	2.ryy	0.r	.
.	.	.	.	4cc\	.	4ee-\	.	.	.	.	.	.	.	.	.
4c\	.	4cc\	.	.	.	.	.	.	.	.	.	.	.	.	.
.	.	.	.	4cc\	.	4ee-\	.	.	.	.	.	.	.	.	.
4c\	.	4cc\	.	.	.	.	.	.	.	.	.	.	.	.	.
.	.	.	.	8cc\	.	8ee-\	.	.	.	.	.	.	.	.	.
!	!	!	!	!LO:LB:g=original	!	!	!	!	!	!	!	!	!	!	!
=81	=81	=81	=81	=81	=81	=81	=81	=81	=81	=81	=81	=81	=81	=81	=81
4F#X\	.	4f#X\	.	8cc\	.	8ee-\	.	2.ryy	2.ryy	2.ryy	.	.	2.ryy	.	.
.	.	.	.	4cc\	.	4ee-\	.	.	.	.	.	.	.	.	.
4F#\	.	4f#\	.	.	.	.	.	.	.	.	.	.	.	.	.
.	.	.	.	4b-\	.	4dd\	.	.	.	.	.	.	.	.	.
4F#\	.	4f#\	.	.	.	.	.	.	.	.	.	.	.	.	.
.	.	.	.	8a/	.	8cc\	.	.	.	.	.	.	.	.	.
=82	=82	=82	=82	=82	=82	=82	=82	=82	=82	=82	=82	=82	=82	=82	=82
4G\	.	4g\	.	8a/	.	8cc\	.	2.ryy	2.ryy	2.ryy	.	.	2.ryy	.	.
.	.	.	.	4g/	.	4b-\	.	.	.	.	.	.	.	.	.
4D\	.	4d\	.	.	.	.	.	.	.	.	.	.	.	.	.
.	.	.	.	4g/	.	4b-\	.	.	.	.	.	.	.	.	.
4GG/	.	4G/	.	.	.	.	.	.	.	.	.	.	.	.	.
.	.	.	.	8g/	.	8b-\	.	.	.	.	.	.	.	.	.
=83	=83	=83	=83	=83	=83	=83	=83	=83	=83	=83	=83	=83	=83	=83	=83
!	!LO:DY:t=p:	!	!	!	!	!	!	!	!	!	!	!	!	!	!
4C/	p	4c\	.	8r	.	8r	p	2.ryy	2.ryy	2.ryy	.	.	2.ryy	.	.
.	.	.	.	8e-X/	.	8a/	.	.	.	.	.	.	.	.	.
4D/	.	4d\	.	8r	.	8r	.	.	.	.	.	.	.	.	.
.	.	.	.	8d/	.	8g/	.	.	.	.	.	.	.	.	.
4DD/	.	4D/	.	8r	.	8r	.	.	.	.	.	.	.	.	.
.	.	.	.	8c/	.	8f#X/	.	.	.	.	.	.	.	.	.
!	!	!	!	!	!	!LO:LB:g=original	!	!	!	!	!	!	!	!	!
=84	=84	=84	=84	=84	=84	=84	=84	=84	=84	=84	=84	=84	=84	=84	=84
!	!	!	!	!	!LO:DY:t=fo	!	!	!	!	!	!LO:N:vis=0	!	!	!LO:N:vis=0	!
4GG/	f	4G/	f	8B-/L	f	8g/L	f	2.ryy	2.ryy	2.ryy	1.r	.	2.ryy	1.r	.
.	.	.	.	8B-/J	.	8g/J	.	.	.	.	.	.	.	.	.
4C/	p	4c/	pp	8r	.	8r	.	.	.	.	.	.	.	.	.
.	.	.	.	8c/L	pp	8e-/L	pp	.	.	.	.	.	.	.	.
4D/	.	4d/	.	8B-/	.	8d/	.	.	.	.	.	.	.	.	.
.	.	.	.	8A/J	.	8c/J	.	.	.	.	.	.	.	.	.
=85	=85	=85	=85	=85	=85	=85	=85	=85	=85	=85	=85	=85	=85	=85	=85
2G\	.	2g\	.	2A/	.	2c/	.	2.ryy	2.ryy	2.ryy	.	.	2.ryy	.	.
4GG/	.	4G/	.	4G/	.	4B-/	.	.	.	.	.	.	.	.	.
=86	=86	=86	=86	=86	=86	=86	=86	=86	=86	=86	=86	=86	=86	=86	=86
!	!	!	!	!	!	!	!	!	!	!	!	!	!	!LO:TX:A:t=problem:nadmiarowy takt	!
2.ryy	.	2.ryy	.	2.ryy	.	2.ryy	.	2.ryy	2.ryy	2.ryy	2.ryy	.	2.ryy	2.r	.
==	==	==	==	==	==	==	==	==	==	==	==	==	==	==	==
*-	*-	*-	*-	*-	*-	*-	*-	*-	*-	*-	*-	*-	*-	*-	*-
!!!system-decoration: [(g1)][(g2)][(g3)]
!!!RDF**kern: i = editorial accidental
!!!RDF**kern: >= above
!!!RDF**kern: <= below
!!!RDF**dynam: f=for
!!!RDF**dynam: cresc. = cres.
!!!AIN: 3 empty 2 fagot 2 oboe 1 viola 2 violn
!!!ENC: Anna Matuszewska
!!!END: 2020-07-14
